X:1
T:Title
%%score { ( 1 3 ) | ( 2 4 ) }
L:1/8
Q:1/4=100
M:4/4
K:A
V:1 treble nm="Grand Piano"
V:3 treble 
V:2 bass 
V:4 bass 
V:1
 [CE][CE][CA][DB] [Ec][Ec][EA][EA] |[M:3/4] BB AF [DF][CE] |[M:1/4] [A,C][B,D] | %3
w: Charles~Gabriel * * * * * * *|||
[M:4/4] [CE][CE][EA]B c3 [EA] |[M:3/4] z2 z2 B2 |[M:1/4] [EA][EB] | %6
w: |||
[M:4/4] [Ec][Ec][Ec][Fd] [Ec][Ec][EA][EA] | B2 A2 F[FA][EG][DF] | [CE][CE][EA]B ccAA | %9
w: |||
 B2 AG [CEA]4 | [Ge][Ge][GB][Ac] [Gd][Gd] z2 | [Ed][EG][EA]B cc z2 | e3 c fecA |[M:3/4] z2 z2 B2 | %14
w: |||||
[M:1/4] [EA][EB] |[M:4/4] [Ec][Ec][Ec][Fd] [Ec][Ec][EA][EA] | B2 A2 F[FA][EG][DF] | %17
w: |||
 [CE][CE][EA]B ccAA |[M:8/4] B2 AG [CEA]4 z8 |] %19
w: ||
V:2
 [A,,A,][A,,A,][A,,A,][A,,A,] [A,,A,][A,,A,][C,A,][C,A,] | %1
[M:3/4] [D,F,D][D,F,D] [D,F,D][D,A,D] [A,,A,][A,,A,] |[M:1/4] [A,,E,][A,,E,] | %3
[M:4/4] [A,,A,][A,,A,][C,A,][E,A,E] [A,E]3 [C,A,] | %4
[M:3/4] [E,G,E][E,G,E] [E,G,E][E,A,E] .[E,G,E]2 |[M:1/4] [C,A,][B,,G,] | %6
[M:4/4] [A,,A,][A,,A,][A,,A,][A,,A,] [A,,A,][A,,A,][C,A,][C,A,] | %7
 [D,F,D]2 [D,F,D]2 [D,A,D][D,A,][D,A,][D,A,] | [A,,A,][A,,A,][C,A,][E,G,E] [A,E][A,E][A,CE][A,CE] | %9
 z2 .C2 z4 | [E,B,][E,B,][E,E][E,E] [E,E][E,E] z2 | [E,B,][D,B,][C,A,][E,G,E] [A,E][A,E] z2 | %12
 [A,CA]3 [A,EA] [A,DA][A,CA][A,EA][K:bass][A,CE] |[M:3/4] [G,B,E][A,E] [G,B,E][F,B,^D] .[E,G,E]2 | %14
[M:1/4] [C,A,][B,,G,] |[M:4/4] [A,,A,][A,,A,][A,,A,][A,,A,] [A,,A,][A,,A,][C,A,][C,A,] | %16
 [D,F,D]2 [D,F,D]2 [D,A,D][D,A,][D,A,][D,A,] | [A,,A,][A,,A,][C,A,][E,G,E] [A,E][A,E][A,CE][A,CE] | %18
[M:8/4] z2 .C2 z4 z8 |] %19
V:3
 x8 |[M:3/4] x6 |[M:1/4] x2 |[M:4/4] x8 |[M:3/4] BB Bc z D, |[M:1/4] x2 |[M:4/4] x8 | x8 | x8 | %9
 x8 | x8 | x8 | x8 |[M:3/4] dc BA z D, |[M:1/4] x2 |[M:4/4] x8 | x8 | x8 |[M:8/4] x16 |] %19
V:4
 x8 |[M:3/4] x6 |[M:1/4] x2 |[M:4/4] x8 |[M:3/4] x6 |[M:1/4] x2 |[M:4/4] x8 | x8 | x8 | %9
 [E,DE]2 [E,E]-[E,B,E] A,,4 | x8 | x8 | x7[K:bass] x |[M:3/4] x6 |[M:1/4] x2 |[M:4/4] x8 | x8 | %17
 x8 |[M:8/4] [E,DE]2 [E,E]-[E,B,E] A,,4 z8 |] %19

